modules/icons/decline.svg

<svg xmlns="http://www.w3.org/2000/svg" x="0px" y="0px" width="100" height="100" viewBox="0 0 50 50" fill="#000000;">
	<path d="M 25 2 C 12.326643 2 2 12.326643 2 25 C 2 37.673357 
		12.326643 48 25 48 C 37.673357 48 48 37.673357 48 25 C 
		48 12.326643 37.673357 2 25 2 z M 25 4 C 36.588643 4 46 
		13.411357 46 25 C 46 36.588643 36.588643 46 25 46 C 
		13.411357 46 4 36.588643 4 25 C 4 13.411357 13.411357 4 
		25 4 z M 25 6 C 20.523675 6 16.401638 7.5702753 
		13.152344 10.169922 L 12.28125 10.867188 L 39.132812 
		37.71875 L 39.830078 36.847656 C 42.429725 33.598362 44 
		29.476325 44 25 C 44 14.532599 35.467401 6 25 6 z M 25
		8 C 34.382599 8 42 15.617401 42 25 C 42 28.596865 
		40.748192 31.842246 38.833984 34.591797 L 15.408203 
		11.166016 C 18.157754 9.2518073 21.403135 8 25 8 z M 
		10.867188 12.28125 L 10.169922 13.152344 C 7.5702753 
		16.401638 6 20.523675 6 25 C 6 35.467401 14.532599 44 
		25 44 C 29.476325 44 33.598362 42.429725 36.847656 
		39.830078 L 37.71875 39.132812 L 10.867188 12.28125 z M 
		11.166016 15.408203 L 34.591797 38.833984 C 31.842246 
		40.748192 28.596865 42 25 42 C 15.617401 42 8 34.382599 
		8 25 C 8 21.403135 9.2518073 18.157754 11.166016 15.408203 z">
	</path>
</svg>

<svg xmlns="http://www.w3.org/2000/svg" width="100" height="100" fill="#000000;" viewBox="0 0 50 50">
	<path d="M25 2C12.327 2 2 12.327 2 25s10.327 23 23 23 23-10.327 23-23S37.673 2 25 2m0 2c11.589 0 21 9.411 21 21s-9.411 21-21 21S4 36.589 4 25 13.411 4 25 4m0 2a18.92 18.92 0 0 0-11.848 4.17l-.87.697 26.85 26.852.698-.871A18.92 18.92 0 0 0 44 25c0-10.467-8.533-19-19-19m0 2c9.383 0 17 7.617 17 17 0 3.597-1.252 6.842-3.166 9.592L15.408 11.166C18.158 9.252 21.403 8 25 8m-14.133 4.281-.697.871A18.92 18.92 0 0 0 6 25c0 10.467 8.533 19 19 19a18.92 18.92 0 0 0 11.848-4.17l.87-.697zm.299 3.127 23.426 23.426C31.842 40.748 28.597 42 25 42c-9.383 0-17-7.617-17-17 0-3.597 1.252-6.842 3.166-9.592"/>
</svg>
